X:283
L:1/8
M:4/4
K:A
 d |O c<A c/d/e c2 A>c | B>^G B/c/d B2 G>e | c>A c/d/e c2 A>d |{d} c>A{c} B>G (A2 A) :| g | 
 a>e e/d/c a2 e>f | =g>d d/c/B g2 d>^g | a>e e/d/c a2 e>d |{d} c>A{c} B>G (A2 A)e | 
 a>e e/d/c a2 e>f | =g>d d/c/B g2 d>^g | a>eec a>ef>d |{d} c>A{c}B>G (3Aaa (3gbbO ||

